X: 09261
M: 9/8
L: 1/8
K: F
V: 1 clef=treble middle=B
d !segno!|:\
cAF G2A G2d | cAF [G2E2][BG] [cF]AF |\
cAF [G2E2][AF] [G2E2]A | FAc fed cAF :|\
d |\
d2^f gaf g2d | de^f gab a=fd |
d2e =fge f2d | cBA fed cAF |\
cAF G2A G2d | cAF [G2E2][BG] [cF]AF |\
cAF [G2E2][AF] [G2E2]A | FAc fed cAF |]
V: 2 clef=bass middle=d
z !segno!|:\
z |\
d'2c' b2a g3 | d'2c' bag d3 |\
b3 a2g f3 | f3 A2B f3 |

